X:1
T:Mendip, CM
T:Mendip, CM
T:English Traditional Melody
T:Public Domain Courtesy of the Cyber Hymnal™
C:English Traditional Melody
Z:Public Domain
Z:Courtesy of the Cyber Hymnal™
%%score ( 1 2 ) ( 3 4 )
L:1/8
Q:1/4=112
M:4/4
K:Eb
V:1 treble 
V:2 treble 
V:3 bass 
V:4 bass 
V:1
 [EB]2 | [EB]2 A2 [EG]2 [FB]2 | [Ee]2 [Ed]2 [Ec]2 [Dc]2 | [EB]2 [EG]2 E2 E2 | [DF]6 (EF) | %5
 [EG]2 [EG]2 [DF]2 [CE]2 | [EB]2 [_DB]2 [CA]2 (AB) | [Ac]2 [EA]2 [EF]2 [DF]2 | E6 |] %9
V:2
 x2 | x2 (CD) x4 | x8 | x4 E2 E2 | x6 B,2 | x8 | x6 A2 | x8 | E6 |] %9
V:3
 [E,G,]2 | G,2 [F,A,]2 [E,B,]2 [D,B,]2 | [C,C]2 [G,,B,]2 [A,,A,]2 [F,A,]2 | %3
 [G,B,]2 [E,B,]2 [C,B,]2 [C,=A,]2 | [B,,B,]6 (G,A,) | [E,B,]2 [E,B,]2 [B,,A,]2 [C,G,]2 | %6
 [G,,E,]2 [G,,E,]2 [A,,E,]2 C2 | [F,C]2 [A,C]2 B,2 (B,A,) | [E,G,]6 |] %9
V:4
 x2 | G,2 x6 | x8 | x8 | x6 E,2 | x8 | x6 A,G, | x4 B,2 B,,2 | x6 |] %9

